!!!OTL: Mei Schaetzerl.
!!!OTL-incipit:ROTHE BAECKLE BLAU AEUGLE
!!!COM: Volksweise
!!!ARE: Europa, Mitteleuropa, Deutschland
!!!SCT: F0207A
!!!TXL: @@GSW
!!!YEM: Copyright 1995, estate of Helmut Schaffrath.
**kern	**text
*ICvox	*
*clefG2	*
*M3/8	*
*k[f#]	*
*G:	*
!LO:TX:a:t=Länderisch.	!
{16d	1._Ro-
16d	-the
=1	=1
8.g	Bäck-
16f#	-le,
8g	blau
=2	=2
8a	Aeugle
8ee	.
16dd	und
16dd	ä
=3	=3
8cc	Grüble
8d	.
8f#	im
=4	=4
8g}	Kinn,
{8ee	und
8dd	ſo
=5	=5
8cc	ſieht
8f#	halt
8a	mei
=6	=6
8b	Schätʒerl,
8ee	.
8dd	dem
=7	=7
8cc	ich
8d	ſo
8d	gut
=8	=8
8g	bin.
8r}	.
==	==
!!!AGN: Liebes - Lied
!!!ONB: ESAC (Essen Associative Code) Database: FINK
!!!AMT: simple triple
!!!AIN: vox
!!!EED: Helmut Schaffrath
!!!EEV: 1.0
!!!GTL: Volkslieder
!!Text: Volkslied
!!!source: Musikalischer Hausschatz der Deutschen. Eine Sammlung von über 1000 Liedern und Gesängen mit Singstimmen und Klavierbegleitung. Leipzig, Litterarisches Verlags-Haus.
!!!page: 121
!!!URL-scan: https://www.digitale-sammlungen.de/en/view/bsb11144622?page=128,129
!!!ENC: Anna Maria Matuszewska
!!!EEV: 2024/07/29
*-	*-